app/assets/images/icons/active/information.svg

<svg width="32" height="232" viewBox="0 0 32 232" xmlns="http://www.w3.org/2000/svg" xmlns:sketch="http://www.bohemiancoding.com/sketch/ns"><title>information</title><g sketch:type="MSPage" fill="none"><path d="M16 123c-7.168 0-13 5.832-13 12.998 0 7.168 5.832 13.002 13 13.002 7.167 0 13-5.834 13-13.002 0-7.166-5.833-12.998-13-12.998m0 2.482c1.365 0 2.564 1.168 2.564 2.497 0 1.426-1.141 2.627-2.564 2.627-1.36 0-2.563-1.234-2.563-2.627 0-1.295 1.203-2.497 2.563-2.497m4.634 19.987h-9.066v-1.25c.512-.028.965-.078 1.361-.184.541-.154.77-.574.77-1.14v-7.08c-.063-.547-.287-1.014-.736-1.303-.346-.207-1.084-.413-1.594-.441v-1.299l6.908-.311.197.18v10.094c0 .574.256.986.77 1.169.424.159.879.287 1.39.315v1.25" fill="#206FAC" sketch:type="MSShapeGroup"/><path d="M16 83c-7.168 0-13 5.832-13 12.998 0 7.168 5.832 13.002 13 13.002 7.167 0 13-5.834 13-13.002 0-7.166-5.833-12.998-13-12.998m0 2.482c1.365 0 2.564 1.168 2.564 2.497 0 1.426-1.141 2.627-2.564 2.627-1.36 0-2.563-1.234-2.563-2.627 0-1.295 1.203-2.497 2.563-2.497m4.634 19.987h-9.066v-1.25c.512-.028.965-.078 1.361-.184.541-.154.77-.574.77-1.14v-7.08c-.063-.547-.287-1.014-.736-1.303-.346-.207-1.084-.413-1.594-.441v-1.299l6.908-.311.197.18v10.094c0 .574.256.986.77 1.169.424.159.879.287 1.39.315v1.25" fill="#fff" sketch:type="MSShapeGroup"/><path d="M16 43c-7.168 0-13 5.832-13 12.998 0 7.168 5.832 13.002 13 13.002 7.167 0 13-5.834 13-13.002 0-7.166-5.833-12.998-13-12.998m0 2.482c1.365 0 2.564 1.168 2.564 2.497 0 1.426-1.141 2.627-2.564 2.627-1.36 0-2.563-1.234-2.563-2.627 0-1.295 1.203-2.497 2.563-2.497m4.634 19.987h-9.066v-1.25c.512-.028.965-.078 1.361-.184.541-.154.77-.574.77-1.14v-7.08c-.063-.547-.287-1.014-.736-1.303-.346-.207-1.084-.413-1.594-.441v-1.299l6.908-.311.197.18v10.094c0 .574.256.986.77 1.169.424.159.879.287 1.39.315v1.25" fill="#67747C" sketch:type="MSShapeGroup"/><path d="M16 3c-7.168 0-13 5.832-13 12.998 0 7.168 5.832 13.002 13 13.002 7.167 0 13-5.834 13-13.002 0-7.166-5.833-12.998-13-12.998m0 2.482c1.365 0 2.564 1.168 2.564 2.497 0 1.426-1.141 2.627-2.564 2.627-1.36 0-2.563-1.234-2.563-2.627 0-1.295 1.203-2.497 2.563-2.497m4.634 19.987h-9.066v-1.25c.512-.028.965-.078 1.361-.184.541-.154.77-.574.77-1.14v-7.08c-.063-.547-.287-1.014-.736-1.303-.346-.207-1.084-.413-1.594-.441v-1.299l6.908-.311.197.18v10.094c0 .574.256.986.77 1.169.424.159.879.287 1.39.315v1.25" fill="#3B444F" sketch:type="MSShapeGroup"/></g></svg>

<?xml version="1.0" encoding="UTF-8" standalone="no"?>
<svg width="32px" height="232px" viewBox="0 0 32 232" version="1.1" xmlns="http://www.w3.org/2000/svg" xmlns:xlink="http://www.w3.org/1999/xlink" xmlns:sketch="http://www.bohemiancoding.com/sketch/ns">
    <title>information</title>
    <description>Created with Sketch (http://www.bohemiancoding.com/sketch)</description>
    <defs></defs>
    <g id="Points-of-interest" stroke="none" stroke-width="1" fill="none" fill-rule="evenodd" sketch:type="MSPage">
        <path d="M16,123 C8.832,123 3,128.832 3,135.998 C3,143.166 8.832,149 16,149 C23.167,149 29,143.166 29,135.998 C29,128.832 23.167,123 16,123 M16,125.482 C17.365,125.482 18.564,126.65 18.564,127.979 C18.564,129.405 17.423,130.606 16,130.606 C14.64,130.606 13.437,129.372 13.437,127.979 C13.437,126.684 14.64,125.482 16,125.482 M20.634,145.469 L11.568,145.469 L11.568,144.219 C12.08,144.191 12.533,144.141 12.929,144.035 C13.47,143.881 13.699,143.461 13.699,142.895 L13.699,135.815 C13.636,135.268 13.412,134.801 12.963,134.512 C12.617,134.305 11.879,134.099 11.369,134.071 L11.369,132.772 L18.277,132.461 L18.474,132.641 L18.474,142.735 C18.474,143.309 18.73,143.721 19.244,143.904 C19.668,144.063 20.123,144.191 20.634,144.219 L20.634,145.469" id="information--lp-blue" fill="#206FAC" sketch:type="MSShapeGroup"></path>
        <path d="M16,83 C8.832,83 3,88.832 3,95.998 C3,103.166 8.832,109 16,109 C23.167,109 29,103.166 29,95.998 C29,88.832 23.167,83 16,83 M16,85.482 C17.365,85.482 18.564,86.65 18.564,87.979 C18.564,89.405 17.423,90.606 16,90.606 C14.64,90.606 13.437,89.372 13.437,87.979 C13.437,86.684 14.64,85.482 16,85.482 M20.634,105.469 L11.568,105.469 L11.568,104.219 C12.08,104.191 12.533,104.141 12.929,104.035 C13.47,103.881 13.699,103.461 13.699,102.895 L13.699,95.815 C13.636,95.268 13.412,94.801 12.963,94.512 C12.617,94.305 11.879,94.099 11.369,94.071 L11.369,92.772 L18.277,92.461 L18.474,92.641 L18.474,102.735 C18.474,103.309 18.73,103.721 19.244,103.904 C19.668,104.063 20.123,104.191 20.634,104.219 L20.634,105.469" id="information--white" fill="#FFFFFF" sketch:type="MSShapeGroup"></path>
        <path d="M16,43 C8.832,43 3,48.832 3,55.998 C3,63.166 8.832,69 16,69 C23.167,69 29,63.166 29,55.998 C29,48.832 23.167,43 16,43 M16,45.482 C17.365,45.482 18.564,46.65 18.564,47.979 C18.564,49.405 17.423,50.606 16,50.606 C14.64,50.606 13.437,49.372 13.437,47.979 C13.437,46.684 14.64,45.482 16,45.482 M20.634,65.469 L11.568,65.469 L11.568,64.219 C12.08,64.191 12.533,64.141 12.929,64.035 C13.47,63.881 13.699,63.461 13.699,62.895 L13.699,55.815 C13.636,55.268 13.412,54.801 12.963,54.512 C12.617,54.305 11.879,54.099 11.369,54.071 L11.369,52.772 L18.277,52.461 L18.474,52.641 L18.474,62.735 C18.474,63.309 18.73,63.721 19.244,63.904 C19.668,64.063 20.123,64.191 20.634,64.219 L20.634,65.469" id="information--body-grey" fill="#67747C" sketch:type="MSShapeGroup"></path>
        <path d="M16,3 C8.832,3 3,8.832 3,15.998 C3,23.166 8.832,29 16,29 C23.167,29 29,23.166 29,15.998 C29,8.832 23.167,3 16,3 M16,5.482 C17.365,5.482 18.564,6.65 18.564,7.979 C18.564,9.405 17.423,10.606 16,10.606 C14.64,10.606 13.437,9.372 13.437,7.979 C13.437,6.684 14.64,5.482 16,5.482 M20.634,25.469 L11.568,25.469 L11.568,24.219 C12.08,24.191 12.533,24.141 12.929,24.035 C13.47,23.881 13.699,23.461 13.699,22.895 L13.699,15.815 C13.636,15.268 13.412,14.801 12.963,14.512 C12.617,14.305 11.879,14.099 11.369,14.071 L11.369,12.772 L18.277,12.461 L18.474,12.641 L18.474,22.735 C18.474,23.309 18.73,23.721 19.244,23.904 C19.668,24.063 20.123,24.191 20.634,24.219 L20.634,25.469" id="information--title-grey" fill="#3B444F" sketch:type="MSShapeGroup"></path>
    </g>
</svg>
